X: 17
M:2/4
L:1/16
K:G
vDC|\
|:vga|\
bgfg egfg | dgBg dgBg | bgfg dgfg | eaag .a2(ga) |
bgfg egfg | dgBg dBGB | c"4"eAc BdGB | AGFA G2:|


